X:274
T:Danza (CT 376)
R:Danza
C:Tradicional
S:Música Tradicional Asturiana, (C) Tello & Tito. Asturies, 2001.
S:http://pagina.de/MusTradAst <telloytito@asturies.org>
N:Danza, transcrita en Grau.
N:Intervienen personas de ambos sexos divididas indistintamente en dos coros.
A:Asturies
O:Grau
Z:Cancioneru de Torner 376
M:6/8
L:1/8
Q:3/8=80
K:G
"coro 1º"
B2 c|d3 fed|e3 d3-|d2 z
"coro 2º"
B2 c|d3 fed|e3 d3-|d2 z
"coro 1º"
B2 c|d3 fed|c3 B3-|B2 z e2 d|c3 ded|c3 B3-|B2 z
"coro 2º"
e2 d|c3 ded|c3 B3-|B2 z :||
W:En la foguera del Cristo, (tres)
W:robaron una morena, (tres)
W:y el que la robó decía:
W:esta sí que fue foguera (bis)
W:
